X:312
T:New Rigaudon,A. (p)1690.PLFD.312
T:Old Rigaudon,The. (p)1690.PLFD.312
T:Rigaudon,A. (p)1690.PLFD.312
M:4/4
L:1/4
Q:1/2=100
S:Playford, Dancing Master,8th Ed,1690.
O:England
N:Such a bewildering variety of tittles to choose from!
H:1690.
Z:Chris Partington
K:D
N:I have chosen to transcribe the tune as from ed 17.
A/B/4c/4 | d2 c>B | A3 A | BB/c/ (c3/B/4c/4) |\
d>A FA/B/4c/4 | d2 c>B | A3 A | B/c/d/B/ c/d/e/c/ | d4 :|
|: f/g/a f/g/a | g>f eA | d2 ef | f2 e2 |\
f/g/a/g/ f/g/a/b/ | g>f eA | B/c/d/B/ c/d/e/c/ | d3 :|
